neru-light-classic/22x22/actions/backup.svg

<svg xmlns="http://www.w3.org/2000/svg" width="22" height="22" version="1.1">
 <defs>
  <style id="current-color-scheme" type="text/css">
   .ColorScheme-Text { color:#1e333d; } .ColorScheme-Highlight { color:#3fb7ff; }
  </style>
 </defs>
 <path style="fill:currentColor" class="ColorScheme-Text" d="M 11 3 A 8 8 0 0 0 3 11 A 8 8 0 0 0 11 19 A 8 8 0 0 0 19 11 A 8 8 0 0 0 11 3 z M 10.927734 6 A 5 5 0 0 1 14.535156 7.4648438 L 15.242188 6.7578125 L 15.595703 8.5253906 L 15.949219 10.292969 L 15.943359 10.291016 L 15.548828 10.212891 L 13.773438 9.8613281 A 3 3 0 0 0 13.771484 9.8574219 L 12.414062 9.5859375 L 13.121094 8.8789062 A 3 3 0 0 0 8.8789062 8.8789062 A 3 3 0 0 0 8.8691406 8.8886719 L 6.7011719 8.4589844 A 5 5 0 0 1 7.4648438 7.4648438 A 5 5 0 0 1 10.927734 6 z M 6.0507812 11.707031 L 6.0566406 11.708984 L 6.4511719 11.787109 L 8.2265625 12.138672 A 3 3 0 0 0 8.2285156 12.142578 L 9.5859375 12.414062 L 8.8789062 13.121094 A 3 3 0 0 0 13.121094 13.121094 A 3 3 0 0 0 13.130859 13.111328 L 15.298828 13.541016 A 5 5 0 0 1 14.535156 14.535156 A 5 5 0 0 1 7.4648438 14.535156 L 6.7578125 15.242188 L 6.4042969 13.474609 L 6.0507812 11.707031 z"/>
</svg>

<svg xmlns="http://www.w3.org/2000/svg" width="22" height="22"><defs><style id="current-color-scheme" type="text/css"></style></defs><path d="M11 3a8 8 0 0 0-8 8 8 8 0 0 0 8 8 8 8 0 0 0 8-8 8 8 0 0 0-8-8zm-.072 3a5 5 0 0 1 3.607 1.465l.707-.707.354 1.767.353 1.768-.006-.002-.394-.078-1.776-.352a3 3 0 0 0-.002-.004l-1.357-.271.707-.707a3 3 0 0 0-4.242 0 3 3 0 0 0-.01.01l-2.168-.43a5 5 0 0 1 .764-.994A5 5 0 0 1 10.928 6zM6.05 11.707l.006.002.394.078 1.776.352a3 3 0 0 0 .002.004l1.357.271-.707.707a3 3 0 0 0 4.242 0 3 3 0 0 0 .01-.01l2.168.43a5 5 0 0 1-.764.994 5 5 0 0 1-7.07 0l-.707.707-.354-1.767-.353-1.768z" fill="currentColor" color="#1e333d"/></svg>
